;FLAVOR:Marlin
;TIME:3765
;Filament used: 2.55264m
;Layer height: 0.2
;MINX:130
;MINY:107.255
;MINZ:0.2
;MAXX:170
;MAXY:192.736
;MAXZ:8
;Generated with Cura_SteamEngine 4.11.0
M140 S50
M105
M190 S50
M104 S200
M105
M109 S200
M82 ;absolute extrusion mode
M201 X500.00 Y500.00 Z100.00 E5000.00 ;Setup machine max acceleration
M203 X500.00 Y500.00 Z10.00 E50.00 ;Setup machine max feedrate
M204 P500.00 R1000.00 T500.00 ;Setup Print/Retract/Travel acceleration
M205 X8.00 Y8.00 Z0.40 E5.00 ;Setup Jerk
M220 S100 ;Reset Feedrate
M221 S100 ;Reset Flowrate

G28 ;Home
G29 ;Auto bed Level

G92 E0 ;Reset Extruder
G1 Z2.0 F3000 ;Move Z Axis up
G1 X10.1 Y20 Z0.28 F5000.0 ;Move to start position
G1 X10.1 Y200.0 Z0.28 F1500.0 E15 ;Draw the first line
G1 X10.4 Y200.0 Z0.28 F5000.0 ;Move to side a little
G1 X10.4 Y20 Z0.28 F1500.0 E30 ;Draw the second line
G92 E0 ;Reset Extruder
G1 Z2.0 F3000 ;Move Z Axis up

G92 E0
G92 E0
G1 F2700 E-5
;LAYER_COUNT:40
;LAYER:0
M107
G0 F6000 X133.117 Y111.838 Z0.2
;TYPE:SKIRT
G1 F2700 E0
G1 F1200 X133.746 Y111.142 E0.0312
G1 X134.148 Y110.754 E0.04978
G1 X134.245 Y110.665 E0.05416
G1 X134.826 Y110.168 E0.07959
G1 X135.033 Y110.003 E0.0884
G1 X135.79 Y109.451 E0.11956
G1 X136.565 Y108.979 E0.14974
G1 X136.791 Y108.854 E0.15833
G1 X137.968 Y108.292 E0.20171
G1 X138.253 Y108.176 E0.21194
G1 X139.391 Y107.783 E0.25199
G1 X139.602 Y107.723 E0.25928
G1 X140.515 Y107.506 E0.2905
G1 X141.084 Y107.411 E0.30968
G1 X141.191 Y107.396 E0.31328
G1 X141.829 Y107.325 E0.33463
G1 X142.125 Y107.301 E0.3445
G1 X142.685 Y107.27 E0.36316
G1 X143.019 Y107.26 E0.37427
G1 X143.348 Y107.255 E0.38522
G1 X158.292 Y107.255 E0.88226
G1 X159.148 Y107.266 E0.91073
G1 X160.085 Y107.32 E0.94195
G1 X161.013 Y107.452 E0.97312
G1 X161.927 Y107.664 E1.00433
G1 X162.819 Y107.953 E1.03551
G1 X163.684 Y108.316 E1.06672
G1 X164.514 Y108.752 E1.0979
G1 X165.304 Y109.257 E1.12908
G1 X166.049 Y109.828 E1.1603
G1 X166.742 Y110.46 E1.1915
G1 X167.379 Y111.148 E1.22268
G1 X167.954 Y111.889 E1.25388
G1 X168.465 Y112.675 E1.28506
G1 X168.907 Y113.503 E1.31628
G1 X169.276 Y114.364 E1.34743
G1 X169.571 Y115.255 E1.37865
G1 X169.789 Y116.167 E1.40984
G1 X169.929 Y117.094 E1.44102
G1 X169.986 Y117.947 E1.46945
G1 X169.995 Y118.258 E1.4798
G1 X170 Y118.576 E1.49038
G1 X169.999 Y172.215 E3.27442
G1 X169.987 Y173.075 E3.30303
G1 X169.973 Y173.51 E3.3175
G1 X169.96 Y173.766 E3.32603
G1 X169.933 Y174.194 E3.34029
G1 X169.868 Y174.878 E3.36315
G1 X169.777 Y175.599 E3.38732
G1 X169.717 Y176.014 E3.40126
G1 X169.699 Y176.123 E3.40494
G1 X169.581 Y176.731 E3.42554
G1 X169.414 Y177.478 E3.451
G1 X169.305 Y177.924 E3.46627
G1 X169.112 Y178.577 E3.48891
G1 X168.834 Y179.424 E3.51856
G1 X168.467 Y180.389 E3.5529
G1 X168.195 Y181.013 E3.57554
G1 X168.034 Y181.364 E3.58839
G1 X167.979 Y181.479 E3.59263
G1 X167.685 Y182.052 E3.61405
G1 X167.279 Y182.787 E3.64197
G1 X167.035 Y183.207 E3.65813
G1 X166.694 Y183.736 E3.67906
G1 X166.29 Y184.326 E3.70285
G1 X166.056 Y184.654 E3.71625
G1 X165.982 Y184.754 E3.72038
G1 X165.584 Y185.26 E3.7418
G1 X165.104 Y185.835 E3.76671
G1 X164.867 Y186.111 E3.77881
G1 X164.319 Y186.692 E3.80537
G1 X163.753 Y187.25 E3.83181
G1 X163.468 Y187.522 E3.84491
G1 X162.931 Y187.99 E3.8686
G1 X162.374 Y188.445 E3.89252
G1 X162.015 Y188.726 E3.90769
G1 X161.947 Y188.777 E3.91051
G1 X161.461 Y189.121 E3.93032
G1 X160.77 Y189.583 E3.95796
G1 X160.421 Y189.807 E3.97176
G1 X160.33 Y189.863 E3.97531
G1 X159.79 Y190.175 E3.99605
G1 X159.212 Y190.487 E4.0179
G1 X158.915 Y190.642 E4.02904
G1 X158.182 Y190.984 E4.05595
G1 X157.372 Y191.326 E4.08519
G1 X156.98 Y191.482 E4.09922
G1 X156.33 Y191.708 E4.12211
G1 X155.633 Y191.926 E4.1464
G1 X155.177 Y192.058 E4.16219
G1 X154.56 Y192.208 E4.18331
G1 X153.747 Y192.38 E4.21095
G1 X153.355 Y192.456 E4.22423
G1 X152.617 Y192.565 E4.24904
G1 X151.947 Y192.641 E4.27147
G1 X151.608 Y192.674 E4.2828
G1 X151.462 Y192.686 E4.28767
G1 X150.765 Y192.721 E4.31088
G1 X149.956 Y192.736 E4.33779
G1 X148.92 Y192.707 E4.37226
G1 X148.089 Y192.644 E4.39998
G1 X147.591 Y192.595 E4.41663
G1 X146.944 Y192.502 E4.43837
G1 X146.227 Y192.377 E4.46257
G1 X145.864 Y192.307 E4.47487
G1 X145.119 Y192.131 E4.50033
G1 X144.373 Y191.927 E4.52605
G1 X143.918 Y191.792 E4.54184
G1 X143.84 Y191.767 E4.54456
G1 X143.296 Y191.577 E4.56373
G1 X142.542 Y191.291 E4.59055
G1 X142.204 Y191.156 E4.60266
G1 X141.523 Y190.849 E4.6275
G1 X140.816 Y190.5 E4.65372
G1 X140.489 Y190.332 E4.66595
G1 X139.823 Y189.952 E4.69146
G1 X139.205 Y189.57 E4.71562
G1 X138.85 Y189.341 E4.72967
G1 X138.285 Y188.941 E4.7527
G1 X137.624 Y188.441 E4.78026
G1 X137.218 Y188.118 E4.79752
G1 X137.146 Y188.058 E4.80063
G1 X136.761 Y187.722 E4.81763
G1 X136.253 Y187.257 E4.84054
G1 X135.902 Y186.921 E4.8567
G1 X135.846 Y186.865 E4.85933
G1 X135.444 Y186.442 E4.87874
G1 X134.838 Y185.768 E4.90889
G1 X134.171 Y184.95 E4.94399
G1 X133.718 Y184.337 E4.96934
G1 X133.495 Y184.024 E4.98213
G1 X133.425 Y183.922 E4.98624
G1 X133.065 Y183.362 E5.00838
G1 X132.695 Y182.746 E5.03228
G1 X132.478 Y182.369 E5.04675
G1 X132.157 Y181.75 E5.06994
G1 X131.815 Y181.036 E5.09627
G1 X131.607 Y180.575 E5.1131
G1 X131.393 Y180.037 E5.13235
G1 X131.121 Y179.297 E5.15858
G1 X130.959 Y178.823 E5.17524
G1 X130.921 Y178.703 E5.17942
G1 X130.767 Y178.169 E5.19791
G1 X130.586 Y177.478 E5.22167
G1 X130.506 Y177.153 E5.2328
G1 X130.475 Y177.018 E5.2374
G1 X130.338 Y176.319 E5.2611
G1 X130.225 Y175.623 E5.28455
G1 X130.157 Y175.134 E5.30097
G1 X130.096 Y174.506 E5.32195
G1 X130.043 Y173.729 E5.34786
G1 X130.023 Y173.351 E5.36045
G1 X130.008 Y172.906 E5.37526
G1 X130.002 Y172.628 E5.3845
G1 X130 Y172.392 E5.39235
G1 X130.001 Y120.798 E7.10838
G1 X130.011 Y120.1 E7.1316
G1 X130.036 Y119.496 E7.1517
G1 X130.046 Y119.352 E7.1565
G1 X130.093 Y118.851 E7.17324
G1 X130.122 Y118.6 E7.18164
G1 X130.269 Y117.674 E7.21283
G1 X130.453 Y116.91 E7.23897
G1 X130.487 Y116.788 E7.24318
G1 X130.611 Y116.374 E7.25755
G1 X130.693 Y116.119 E7.26646
G1 X131.018 Y115.239 E7.29766
G1 X131.354 Y114.512 E7.3243
G1 X131.427 Y114.368 E7.32967
G1 X131.658 Y113.936 E7.34596
G1 X131.772 Y113.734 E7.35368
G1 X132.268 Y112.937 E7.3849
G1 X132.884 Y112.119 E7.41896
G1 X133.117 Y111.838 E7.4311
G0 F6000 X133.425 Y112.093
G1 F1200 X134.043 Y111.411 E7.46171
G1 X134.419 Y111.049 E7.47907
G1 X134.516 Y110.96 E7.48345
G1 X135.075 Y110.481 E7.50793
G1 X135.282 Y110.316 E7.51674
G1 X136.026 Y109.774 E7.54735
G1 X136.759 Y109.329 E7.57587
G1 X136.985 Y109.204 E7.58446
G1 X138.119 Y108.662 E7.62627
G1 X138.404 Y108.546 E7.6365
G1 X139.501 Y108.168 E7.67509
G1 X139.712 Y108.108 E7.68239
G1 X140.607 Y107.895 E7.71299
G1 X141.139 Y107.807 E7.73092
G1 X141.246 Y107.792 E7.73452
G1 X141.861 Y107.724 E7.7551
G1 X142.157 Y107.7 E7.76497
G1 X142.697 Y107.67 E7.78296
G1 X143.031 Y107.66 E7.79408
G1 X143.348 Y107.655 E7.80462
G1 X158.292 Y107.655 E8.30166
G1 X159.143 Y107.666 E8.32997
G1 X160.062 Y107.719 E8.36058
G1 X160.973 Y107.852 E8.39121
G1 X161.869 Y108.063 E8.42182
G1 X162.743 Y108.351 E8.45243
G1 X163.589 Y108.714 E8.48305
G1 X164.401 Y109.149 E8.51369
G1 X165.171 Y109.653 E8.54429
G1 X165.895 Y110.222 E8.57492
G1 X166.567 Y110.851 E8.60554
G1 X167.182 Y111.537 E8.63618
G1 X167.735 Y112.273 E8.6668
G1 X168.222 Y113.054 E8.69741
G1 X168.639 Y113.875 E8.72804
G1 X168.984 Y114.729 E8.75867
G1 X169.253 Y115.609 E8.78928
G1 X169.445 Y116.509 E8.81989
G1 X169.558 Y117.423 E8.85052
G1 X169.587 Y117.958 E8.86834
G1 X169.596 Y118.269 E8.87869
G1 X169.6 Y118.576 E8.8889
G1 X169.599 Y172.21 E10.67277
G1 X169.587 Y173.07 E10.70138
G1 X169.574 Y173.494 E10.71549
G1 X169.561 Y173.74 E10.72368
G1 X169.534 Y174.168 E10.73794
G1 X169.472 Y174.828 E10.75999
G1 X169.381 Y175.549 E10.78416
G1 X169.322 Y175.949 E10.79761
G1 X169.304 Y176.058 E10.80129
G1 X169.191 Y176.644 E10.82114
G1 X169.024 Y177.391 E10.84659
G1 X168.918 Y177.823 E10.86139
G1 X168.732 Y178.453 E10.88324
G1 X168.454 Y179.3 E10.91289
G1 X168.1 Y180.23 E10.94598
G1 X167.828 Y180.854 E10.96862
G1 X167.674 Y181.191 E10.98095
G1 X167.619 Y181.306 E10.98519
G1 X167.335 Y181.858 E11.00583
G1 X166.929 Y182.593 E11.03376
G1 X166.692 Y183 E11.04943
G1 X166.364 Y183.51 E11.06959
G1 X165.96 Y184.1 E11.09338
G1 X165.735 Y184.416 E11.10628
G1 X165.661 Y184.516 E11.11042
G1 X165.277 Y185.004 E11.13107
G1 X164.797 Y185.579 E11.15598
G1 X164.567 Y185.847 E11.16773
G1 X164.038 Y186.407 E11.19335
G1 X163.472 Y186.965 E11.21979
G1 X163.195 Y187.229 E11.23251
G1 X162.678 Y187.68 E11.25533
G1 X162.121 Y188.135 E11.27925
G1 X161.775 Y188.406 E11.29387
G1 X161.707 Y188.457 E11.2967
G1 X161.239 Y188.789 E11.31578
G1 X160.548 Y189.251 E11.34343
G1 X160.211 Y189.467 E11.35674
G1 X160.12 Y189.523 E11.3603
G1 X159.6 Y189.823 E11.38026
G1 X159.022 Y190.135 E11.40211
G1 X158.733 Y190.286 E11.41296
G1 X158.026 Y190.615 E11.43889
G1 X157.216 Y190.957 E11.46814
G1 X156.837 Y191.109 E11.48172
G1 X156.21 Y191.327 E11.5038
G1 X155.513 Y191.545 E11.52809
G1 X155.072 Y191.672 E11.54335
G1 X154.477 Y191.816 E11.56371
G1 X153.664 Y191.988 E11.59135
G1 X153.283 Y192.062 E11.60426
G1 X152.572 Y192.167 E11.62816
G1 X151.902 Y192.243 E11.65059
G1 X151.575 Y192.275 E11.66152
G1 X151.429 Y192.287 E11.66639
G1 X150.758 Y192.321 E11.68874
G1 X149.949 Y192.336 E11.71565
G1 X148.951 Y192.308 E11.74886
G1 X148.12 Y192.245 E11.77657
G1 X147.636 Y192.197 E11.79275
G1 X147.012 Y192.107 E11.81372
G1 X146.295 Y191.982 E11.83793
G1 X145.942 Y191.915 E11.84988
G1 X145.225 Y191.746 E11.87438
G1 X144.479 Y191.542 E11.9001
G1 X143.962 Y191.386 E11.91806
G1 X143.438 Y191.203 E11.93652
G1 X142.684 Y190.917 E11.96335
G1 X142.356 Y190.787 E11.97508
G1 X141.7 Y190.49 E11.99903
G1 X140.993 Y190.141 E12.02525
G1 X140.675 Y189.978 E12.03714
G1 X140.034 Y189.612 E12.06169
G1 X139.416 Y189.23 E12.08585
G1 X139.071 Y189.008 E12.0995
G1 X138.526 Y188.622 E12.12171
G1 X137.865 Y188.122 E12.14928
G1 X137.474 Y187.811 E12.1659
G1 X137.402 Y187.751 E12.16901
G1 X137.031 Y187.427 E12.1854
G1 X136.523 Y186.962 E12.2083
G1 X136.185 Y186.638 E12.22387
G1 X136.129 Y186.582 E12.22651
G1 X135.742 Y186.174 E12.24521
G1 X135.136 Y185.5 E12.27536
G1 X134.493 Y184.713 E12.30916
G1 X134.04 Y184.1 E12.33451
G1 X133.825 Y183.798 E12.34684
G1 X133.755 Y183.696 E12.35096
G1 X133.408 Y183.156 E12.3723
G1 X133.038 Y182.54 E12.3962
G1 X132.828 Y182.174 E12.41024
G1 X132.518 Y181.577 E12.43261
G1 X132.176 Y180.863 E12.45894
G1 X131.975 Y180.418 E12.47519
G1 X131.769 Y179.899 E12.49376
G1 X131.497 Y179.159 E12.51998
G1 X131.341 Y178.702 E12.53604
G1 X131.303 Y178.582 E12.54023
G1 X131.154 Y178.068 E12.55803
G1 X130.973 Y177.377 E12.58178
G1 X130.896 Y177.063 E12.59254
G1 X130.865 Y176.928 E12.59714
G1 X130.733 Y176.255 E12.61996
G1 X130.62 Y175.559 E12.64341
G1 X130.566 Y175.187 E12.65591
G1 X130.553 Y175.084 E12.65936
G1 X130.495 Y174.478 E12.67961
G1 X130.442 Y173.701 E12.70551
G1 X130.423 Y173.337 E12.71764
G1 X130.408 Y172.892 E12.73245
G1 X130.402 Y172.625 E12.74133
G1 X130.4 Y172.389 E12.74918
G1 X130.401 Y120.804 E14.4649
G1 X130.411 Y120.106 E14.48812
G1 X130.435 Y119.524 E14.50749
G1 X130.445 Y119.38 E14.5123
G1 X130.49 Y118.897 E14.52843
G1 X130.519 Y118.646 E14.53683
G1 X130.664 Y117.737 E14.56745
G1 X130.838 Y117.017 E14.59209
G1 X130.872 Y116.895 E14.5963
G1 X130.992 Y116.496 E14.61016
G1 X131.074 Y116.241 E14.61907
G1 X131.394 Y115.378 E14.64968
G1 X131.71 Y114.693 E14.67477
G1 X131.783 Y114.549 E14.68014
G1 X132.007 Y114.132 E14.69588
G1 X132.121 Y113.93 E14.7036
G1 X132.608 Y113.149 E14.73421
G1 X133.192 Y112.374 E14.76649
G1 X133.425 Y112.093 E14.77863
G0 F6000 X133.733 Y112.348
G1 F1200 X134.34 Y111.679 E14.80867
G1 X134.689 Y111.343 E14.82478
G1 X134.786 Y111.254 E14.82916
G1 X135.324 Y110.794 E14.85271
G1 X135.531 Y110.629 E14.86151
G1 X136.262 Y110.098 E14.89156
G1 X136.952 Y109.679 E14.91841
G1 X137.178 Y109.554 E14.927
G1 X138.27 Y109.033 E14.96724
G1 X138.555 Y108.917 E14.97748
G1 X139.61 Y108.553 E15.0146
G1 X139.821 Y108.493 E15.02189
G1 X140.7 Y108.285 E15.05194
G1 X141.195 Y108.203 E15.06862
G1 X141.302 Y108.188 E15.07222
G1 X141.894 Y108.122 E15.09203
G1 X142.19 Y108.098 E15.10191
G1 X142.709 Y108.07 E15.11919
G1 X143.043 Y108.06 E15.13031
G1 X143.348 Y108.055 E15.14045
G1 X158.292 Y108.055 E15.63749
G1 X159.137 Y108.066 E15.6656
G1 X160.038 Y108.119 E15.69562
G1 X160.932 Y108.251 E15.72568
G1 X161.81 Y108.462 E15.75571
G1 X162.666 Y108.75 E15.78575
G1 X163.493 Y109.112 E15.81577
G1 X164.285 Y109.546 E15.84581
G1 X165.036 Y110.049 E15.87588
G1 X165.739 Y110.616 E15.90592
G1 X166.389 Y111.243 E15.93595
G1 X166.981 Y111.925 E15.96599
G1 X167.51 Y112.656 E15.996
G1 X167.973 Y113.432 E16.02606
G1 X168.365 Y114.245 E16.05608
G1 X168.684 Y115.09 E16.08612
G1 X168.927 Y115.96 E16.11616
G1 X169.092 Y116.848 E16.1462
G1 X169.187 Y117.97 E16.18365
G1 X169.196 Y118.281 E16.194
G1 X169.2 Y118.576 E16.20381
G1 X169.199 Y172.204 E17.98749
G1 X169.187 Y173.064 E18.01609
G1 X169.174 Y173.478 E18.02987
G1 X169.162 Y173.715 E18.03776
G1 X169.135 Y174.143 E18.05203
G1 X169.075 Y174.778 E18.07324
G1 X168.984 Y175.499 E18.09741
G1 X168.928 Y175.884 E18.11035
G1 X168.91 Y175.993 E18.11403
G1 X168.8 Y176.556 E18.13311
G1 X168.633 Y177.303 E18.15857
G1 X168.531 Y177.722 E18.17291
G1 X168.352 Y178.328 E18.19392
G1 X168.074 Y179.175 E18.22357
G1 X167.733 Y180.07 E18.25543
G1 X167.461 Y180.694 E18.27807
G1 X167.313 Y181.019 E18.28995
G1 X167.258 Y181.134 E18.29419
G1 X166.984 Y181.665 E18.31406
G1 X166.578 Y182.4 E18.34199
G1 X166.35 Y182.793 E18.3571
G1 X166.034 Y183.284 E18.37652
G1 X165.63 Y183.874 E18.4003
G1 X165.413 Y184.178 E18.41273
G1 X165.339 Y184.278 E18.41687
G1 X164.97 Y184.748 E18.43674
G1 X164.49 Y185.323 E18.46165
G1 X164.266 Y185.583 E18.47307
G1 X163.757 Y186.123 E18.49775
G1 X163.191 Y186.681 E18.52418
G1 X162.922 Y186.936 E18.53651
G1 X162.425 Y187.37 E18.55846
G1 X161.868 Y187.825 E18.58238
G1 X161.535 Y188.086 E18.59645
G1 X161.467 Y188.137 E18.59928
G1 X161.016 Y188.456 E18.61765
G1 X160.325 Y188.918 E18.6453
G1 X160.002 Y189.126 E18.65808
G1 X159.911 Y189.182 E18.66163
G1 X159.41 Y189.471 E18.68087
G1 X158.832 Y189.783 E18.70271
G1 X158.551 Y189.93 E18.71326
G1 X157.871 Y190.247 E18.73821
G1 X157.061 Y190.589 E18.76746
G1 X156.694 Y190.735 E18.78059
G1 X156.091 Y190.945 E18.80183
G1 X155.394 Y191.163 E18.82612
G1 X154.967 Y191.287 E18.84091
G1 X154.394 Y191.425 E18.86051
G1 X153.581 Y191.597 E18.88815
G1 X153.211 Y191.669 E18.90069
G1 X152.527 Y191.77 E18.92369
G1 X151.857 Y191.846 E18.94611
G1 X151.543 Y191.877 E18.95661
G1 X151.397 Y191.889 E18.96148
G1 X150.75 Y191.921 E18.98303
G1 X149.941 Y191.936 E19.00994
G1 X148.981 Y191.909 E19.04188
G1 X148.15 Y191.846 E19.0696
G1 X147.681 Y191.8 E19.08527
G1 X147.081 Y191.713 E19.10544
G1 X146.364 Y191.588 E19.12964
G1 X146.021 Y191.523 E19.14126
G1 X145.331 Y191.36 E19.16484
G1 X144.585 Y191.156 E19.19056
G1 X144.162 Y191.03 E19.20524
G1 X144.084 Y191.005 E19.20796
G1 X143.58 Y190.829 E19.22572
G1 X142.826 Y190.543 E19.25254
G1 X142.508 Y190.417 E19.26392
G1 X141.877 Y190.131 E19.28696
G1 X141.17 Y189.782 E19.31318
G1 X140.861 Y189.624 E19.32473
G1 X140.244 Y189.271 E19.34837
G1 X139.626 Y188.889 E19.37253
G1 X139.292 Y188.674 E19.38575
G1 X138.768 Y188.303 E19.4071
G1 X138.107 Y187.803 E19.43467
G1 X137.73 Y187.504 E19.45067
G1 X137.658 Y187.444 E19.45379
G1 X137.301 Y187.132 E19.46956
G1 X136.793 Y186.667 E19.49246
G1 X136.412 Y186.299 E19.51008
G1 X136.039 Y185.907 E19.52808
G1 X135.433 Y185.233 E19.55822
G1 X134.815 Y184.475 E19.59075
G1 X134.362 Y183.862 E19.6161
G1 X134.155 Y183.572 E19.62796
G1 X134.085 Y183.47 E19.63207
G1 X133.751 Y182.95 E19.65263
G1 X133.381 Y182.334 E19.67653
G1 X133.177 Y181.979 E19.69014
G1 X132.879 Y181.404 E19.71168
G1 X132.537 Y180.69 E19.73802
G1 X132.343 Y180.26 E19.75371
G1 X132.144 Y179.761 E19.77157
G1 X131.872 Y179.021 E19.7978
G1 X131.722 Y178.581 E19.81326
G1 X131.684 Y178.461 E19.81744
G1 X131.541 Y177.967 E19.83455
G1 X131.36 Y177.276 E19.85831
G1 X131.255 Y176.839 E19.87326
G1 X131.128 Y176.191 E19.89522
G1 X131.015 Y175.495 E19.91867
G1 X130.963 Y175.137 E19.9307
